X: 35312
T: Rose Tree, The
R: polka
M: 2/4
K: Dmajor
|:dB AF|A/B/A/F/ AB/c/|d2 ee|fe ec|
dB AF|A/B/A/F/ AB/c/|df eg|1 fe dc:|2 fe de||
|:fd fg|a2 gf|eb ba|gf e2|
dB AF|A/B/A/F/ AB/c/|df eg|1 fe de:|2 fe dc||

